assets/img/braze_icons/key-02.svg

<svg fill="none" height="24" viewBox="0 0 24 24" width="24" xmlns="http://www.w3.org/2000/svg"><path clip-rule="evenodd" d="m7.99995 9c0-3.86599 3.13405-7 6.99995-7 3.866 0 7 3.13401 7 7 0 3.866-3.134 7-7 7-.3183 0-.6322-.0213-.9402-.0627-.225-.0303-.3658-.049-.4685-.0589-.0183-.0018-.0333-.0031-.0454-.0039l-.0099.0088c-.0534.0488-.1238.1188-.2497.2447l-5.11052 5.1105-.03601.0361c-.13393.1347-.30258.3042-.50894.4307-.17894.1096-.37403.1904-.57811.2394-.23533.0565-.47447.0559-.66438.0554l-.05103-.0001h-1.7693c-.25232 0-.49808.0001-.70619-.0169-.2286-.0187-.49833-.0628-.76975-.2011-.37633-.1917-.68229-.4977-.87404-.874-.13829-.2714-.18236-.5412-.20104-.7698-.01701-.2081-.01698-.4539-.01695-.7063l.00001-1.7692-.0001-.051c-.0005-.1899-.00114-.429.05536-.6644.04899-.204.1298-.3991.23946-.5781.12645-.2063.29599-.375.43064-.5089l.03616-.036 5.1105-5.1105c.12592-.126.19592-.1963.24463-.2498l.00889-.0099c-.00088-.0121-.00213-.0271-.0039-.0454-.00991-.1026-.02867-.2434-.05892-.46842-.0414-.308-.06272-.62192-.06272-.94028zm7.00005 1.5c.8284 0 1.5-.67157 1.5-1.5s-.6716-1.5-1.5-1.5-1.5.67157-1.5 1.5.6716 1.5 1.5 1.5z" fill="#801ed7" fill-rule="evenodd"/></svg>

<svg width="24" height="24" viewBox="0 0 24 24" fill="none" xmlns="http://www.w3.org/2000/svg">
<path fill-rule="evenodd" clip-rule="evenodd" d="M7.99995 9C7.99995 5.13401 11.134 2 14.9999 2C18.8659 2 21.9999 5.13401 21.9999 9C21.9999 12.866 18.8659 16 14.9999 16C14.6816 16 14.3677 15.9787 14.0597 15.9373C13.8347 15.907 13.6939 15.8883 13.5912 15.8784C13.5729 15.8766 13.5579 15.8753 13.5458 15.8745L13.5359 15.8833C13.4825 15.9321 13.4121 16.0021 13.2862 16.128L8.17568 21.2385L8.13967 21.2746C8.00574 21.4093 7.83709 21.5788 7.63073 21.7053C7.45179 21.8149 7.2567 21.8957 7.05262 21.9447C6.81729 22.0012 6.57815 22.0006 6.38824 22.0001L6.33721 22L4.56791 22C4.31559 22 4.06983 22.0001 3.86172 21.9831C3.63312 21.9644 3.36339 21.9203 3.09197 21.782C2.71564 21.5903 2.40968 21.2843 2.21793 20.908C2.07964 20.6366 2.03557 20.3668 2.01689 20.1382C1.99988 19.9301 1.99991 19.6843 1.99994 19.4319L1.99995 17.6627L1.99985 17.6117C1.99935 17.4218 1.99871 17.1827 2.05521 16.9473C2.1042 16.7433 2.18501 16.5482 2.29467 16.3692C2.42112 16.1629 2.59066 15.9942 2.72531 15.8603L2.76147 15.8243L7.87197 10.7138C7.99789 10.5878 8.06789 10.5175 8.1166 10.464L8.12549 10.4541C8.12461 10.442 8.12336 10.427 8.12159 10.4087C8.11168 10.3061 8.09292 10.1653 8.06267 9.94028C8.02127 9.63228 7.99995 9.31836 7.99995 9ZM15 10.5C15.8284 10.5 16.5 9.82843 16.5 9C16.5 8.17157 15.8284 7.5 15 7.5C14.1716 7.5 13.5 8.17157 13.5 9C13.5 9.82843 14.1716 10.5 15 10.5Z" fill="#801ED7"/>
</svg>
